src/assets/icons/svg/join_translate.svg

<svg xmlns="http://www.w3.org/2000/svg" fill="none" viewBox="0 0 40 40" class="design-iconfont" width="128" height="128">
  <path fill="#0070FF" fill-opacity=".1" d="M20 0A20 20 0 1 0 20 40A20 20 0 1 0 20 0Z"></path>
  <path d="M17.083 23.3327L17.9945 21.2493M17.9945 21.2493L19.9997 16.666L22.0049 21.2493M17.9945 21.2493H22.0049M22.9163 23.3327L22.0049 21.2493" stroke="#0070FF" stroke-width="1.6" stroke-linecap="round" stroke-linejoin="round"></path>
  <path d="M28.0003 18.3327C27.2282 14.5289 23.8652 11.666 19.8336 11.666C15.802 11.666 12.4391 14.5289 11.667 18.3327L14.167 17.4993" stroke="#0070FF" stroke-width="1.6" stroke-linecap="round" stroke-linejoin="round"></path>
  <path d="M11.667 21.666C12.4391 25.4698 15.802 28.3327 19.8336 28.3327C23.8652 28.3327 27.2282 25.4698 28.0003 21.666L25.8337 22.4993" stroke="#0070FF" stroke-width="1.6" stroke-linecap="round" stroke-linejoin="round"></path>
</svg>

<svg xmlns="http://www.w3.org/2000/svg" width="128" height="128" fill="none" class="design-iconfont" viewBox="0 0 40 40"><path fill="#0070FF" fill-opacity=".1" d="M20 0a20 20 0 1 0 0 40 20 20 0 1 0 0-40Z"/><path stroke="#0070FF" stroke-linecap="round" stroke-linejoin="round" stroke-width="1.6" d="m17.083 23.333.912-2.084m0 0L20 16.666l2.005 4.583m-4.01 0h4.01m.911 2.084-.911-2.084"/><path stroke="#0070FF" stroke-linecap="round" stroke-linejoin="round" stroke-width="1.6" d="M28 18.333a8.336 8.336 0 0 0-16.333 0l2.5-.834m-2.5 4.167a8.336 8.336 0 0 0 16.333 0l-2.166.833"/></svg>
